public/media/skills/js.svg

<?xml version="1.0" encoding="utf-8"?><!-- Uploaded to: SVG Repo, www.svgrepo.com, Generator: SVG Repo Mixer Tools -->
<svg width="800px" height="800px" viewBox="0 0 32 32" fill="none" xmlns="http://www.w3.org/2000/svg">
<rect x="2" y="2" width="28" height="28" fill="#FFCA28"/>
<path d="M19 25.2879L21.0615 23.9237C21.2231 24.4313 22.2462 25.6368 23.5385 25.6368C24.8308 25.6368 25.4308 24.931 25.4308 24.463C25.4308 23.1878 24.1112 22.7382 23.4774 22.5223C23.374 22.4871 23.289 22.4581 23.2308 22.4328C23.2009 22.4198 23.1558 22.4025 23.0979 22.3804C22.393 22.1111 19.7923 21.1175 19.7923 18.2373C19.7923 15.065 22.8538 14.7002 23.5462 14.7002C23.9991 14.7002 26.1769 14.7557 27.2615 16.7939L25.2615 18.1898C24.8231 17.3015 24.0946 17.0081 23.6462 17.0081C22.5385 17.0081 22.3077 17.8201 22.3077 18.1898C22.3077 19.227 23.5112 19.6919 24.5273 20.0844C24.7932 20.1871 25.0462 20.2848 25.2615 20.3866C26.3692 20.91 28 21.7666 28 24.463C28 25.8136 26.8672 28.0002 24.0154 28.0002C20.1846 28.0002 19.1692 25.7003 19 25.2879Z" fill="#3E3E3E"/>
<path d="M9 25.5587L11.1487 24.1953C11.317 24.7026 11.9713 25.638 12.9205 25.638C13.8698 25.638 14.3557 24.663 14.3557 24.1953V15.0002H16.9982V24.1953C17.041 25.4636 16.3376 28.0002 13.2332 28.0002C10.379 28.0002 9.19242 26.3039 9 25.5587Z" fill="#3E3E3E"/>
</svg>

<svg width="800" height="800" viewBox="0 0 32 32" fill="none" xmlns="http://www.w3.org/2000/svg"><path fill="#FFCA28" d="M2 2h28v28H2z"/><path d="m19 25.288 2.061-1.364c.162.507 1.185 1.713 2.477 1.713 1.293 0 1.893-.706 1.893-1.174 0-1.275-1.32-1.725-1.954-1.94a3.689 3.689 0 0 1-.246-.09 3.68 3.68 0 0 0-.133-.053c-.705-.269-3.306-1.262-3.306-4.143 0-3.172 3.062-3.537 3.754-3.537.453 0 2.63.056 3.716 2.094l-2 1.396c-.439-.889-1.167-1.182-1.616-1.182-1.108 0-1.338.812-1.338 1.182 0 1.037 1.203 1.502 2.22 1.894.265.103.518.2.734.303 1.107.523 2.738 1.38 2.738 4.076C28 25.813 26.867 28 24.015 28c-3.83 0-4.846-2.3-5.015-2.712ZM9 25.559l2.149-1.364c.168.508.822 1.443 1.772 1.443.949 0 1.435-.975 1.435-1.443V15h2.642v9.195c.043 1.269-.66 3.805-3.765 3.805C10.38 28 9.193 26.304 9 25.56Z" fill="#3E3E3E"/></svg>
